X:1
T:Ego dormio
T:Ignatio Donati
T:Source : Primo libro di Motetti a voce sola---Venetia---A.Vincenti---1634 Editor : André Vierendeels (13/12/16).
T:Notes : Original clefs : C1, F4 Editorial accidentals above the staff Figures in BC are notatted in original print "Canto o tenore"
T:Ego dormio
T:©
T:©
T:©
T:©
T:©
T:©
T:©
C:Ignatio Donati
Z:©
%%score 1 2
L:1/8
Q:1/4=120
M:4/4
K:F
V:1 treble nm="Soprano" snm="S"
V:2 bass nm="MusicXML Part"
V:1
 z4 d4- | d4 d4 | Bd/c/ Bc/B/ Ac/B/ AB/A/ | G8- | G4 ^F4 | G8 | z4 A4- | A4 A4 | %8
w: E-|* go|dor- * * * * * * * * * * *||* mi-|o,|e-|* go|
 FA/G/ FG/F/ EG/F/ EF/E/ | D8- | D4 ^C4 | D8 | z4 G4- | G4 G4 | EG/F/ EF/E/ DF/E/ DE/D/ | C8- | %16
w: dor- * * * * * * * * * * *||* mi-|o,|e-|* go|dor- * * * * * * * * * * *||
 C4 =B,4 | CD/E/ F/G/A/B/ c2 z2 | z4 A4- | A2 E2 F/E/F/G/ A/^C/D/E/ | %20
w: * mi-|o, _ _ _ _ _ _ _|et|_ cor me- * * * * * * *|
 F/E/F/D/ E/F/G/F/ G/E/F/G/ A/G/A/F/ | G2 A2 G3 F | F8 | z4 d4- | d2 A2 B/A/B/c/ d/^F/G/A/ | %25
w: |* um vi- gi-|lat,|et|_ cor me- * * * * * * *|
 B/A/B/G/ A/B/c/B/ c/A/B/c/ d/c/d/B/ | c2 d2 c3 B | B8 | z4 d4- | d4 z GGG | G2 AB c4- | %31
w: |* um vi- gi-|lat,|vox|_ di- lec- ti|me- i pul- san-|
 c2 c/4B/4A/4G/4B/4A/4G/4F/4 G4 | F8 | z4 c4- | c4 z AAA | A2 Bc d4- | %36
w: |tes,|vox|_ di- lec- ti|me- i pul- san-|
 d2 d/4c/4B/4A/4c/4B/4A/4G/4 A4 | G8 | z4 A4- | A4 ^F2 F2 | G4 D4 | E2 E2 E2 F/D/E/F/ | %42
w: |tes,|di-|* lec- tus|me- us|mi- sit ma- num _ _ _|
 G2 G2 ABAB | c2 F/G/A/B/ G4 | F8 | z4 d4- | d4 =B2 B2 | c4 G4 | A2 A2 A2 B/G/A/B/ | c2 A2 BcBc | %50
w: su- am per _ _ _|_ fo- * * * ra-|men,|di-|* lec- tus|me- us|mi- sit ma- num _ _ _|su- am per _ _ _|
"^b" d2 e/d/c/B/ d/c/d/B/ c2 | B4 d4- | d2 ^FF F2 FG | A6 E2 | E4 z2 A2 | %55
w: _ fo- * * * ra- * * * *|men et|_ ven- ter me- us in-|tre- mu-|it ad|
 A/G/F/G/ A/E/F/G/ A/C/D/E/ F/G/A/B/ | c/B/A/B/ c/G/A/B/ c2 d2 | A/c/B/A/ B/A/B/G/ A4 | G8 | %59
w: ta- * * * * * * * * * * * * * * *|* * * * * * * * * ctum|e- * * * * * * * *|ius,|
 z4 c4- | c2 EE E2 EF | G6 D2 | D4 z2 d2 | B/A/B/c/ A/G/A/B/ G/F/G/A/ F/E/F/G/ | %64
w: et|_ ven- ter me- us in-|tre- mu-|it ad|ta- * * * * * * * * * * * * * * *|
 A/^C/D/E/ F/E/F/G/ A4- | A2 A/4G/4F/4E/4G/4F/4E/4D/4 E/4F/4G/4A/4 E3 | D4 z2 A2 | %67
w: * * * * * * * * ctum|_ e- * * * * * * * * * * * *|ius, ad|
 F/E/D/E/ F/G/A/D/ E/F/G/E/ F/G/A/B/ | c/B/A/B/ c/A/B/c/ d4- | %69
w: ta- * * * * * * * * * * * * * * *|* * * * * * * * ctum|
 d2 d/4c/4B/4A/4c/4B/4A/4G/4 A/4B/4c/4d/4 A3 | G8 |] %71
w: _ e- * * * * * * * * * * * *|ius|
V:2
"^BC" G,6 F,E, |"^#" D,4 ^F,4 | G,8 | G,2 F,2 _E,2 D,2 |"^#" C,4 D,4 |"^-natural" G,,8 | %6
 D,6 C,B,, |"^#" A,,4 ^C,4 | D,8 | D,2 C,2 B,,2 A,,2 |"^#" G,,4 A,,4 |"^#" D,4 =B,,4 | C,6 B,,A,, | %13
"^-natural" G,,4 =B,,4 | C,8 | C,2 B,,2 A,,2 G,,2 |"^-natural" F,,4 G,,4 | C,8 | F,,6 G,,2 | %19
"^#" A,,4 D,4 | D,8 |"^6     6" B,,2 A,,2 C,4 |"^6" F,,4 A,,4 | B,,6 C,2 |"^#" D,4 G,4 | G,8 | %26
"^6" _E,2 D,2 F,4 | B,,2 B,2 B,2 A,2 | G,4 ^F,4 | G,4 E,4 | E,6 A,,2 | C,8 | F,,4 F,4 | D,4 E,4 | %34
 F,4 F,4 |"^#" D,6 =B,,2 | D,8 | G,,2 G,2 F,2 E,2 | D,4 ^C,4 | D,8 | B,,4 =B,,4 | C,4 A,,2 D,2 | %42
 C,4 F,4 | F,2 D,2 C,4 | F,,2 B,,2 B,,2 A,,2 | G,,4 ^F,,4 | G,,4 G,4 | E,4 E,4 |"^#" F,4 D,2 G,2 | %49
 F,4 G,4 | G,2 _E,2 F,4 | B,,6 C,2 | D,8 |"^#" D,4 A,,4 |"^#" A,,4 ^C,4 |"^#" D,8 | C,6 =B,,2 | %57
"^#" D,8 |"^-natural""^-natural" G,,4 G,4 | E,4 F,4 | C,8 |"^-natural" C,4 G,,4 | %62
"^-natural""^#" G,,4 D,4 | G,,8 | D,6 C,B,, |"^#" A,,8 | D,4 F,4 | D,8 | C,6 =B,,2 |"^#" D,8 | %70
 G,,8 |] %71

